X:310
T: Der geistliche Tannebaum
N: A0656A
O: Europa, Mitteleuropa, Deutschland
N: Fl. Blatt
R: Romanze, Ballade, Lied, religioeses Lied
M: 4/4
L: 1/8
K: G
d2 | A3GA2d2 | A3GA2A2 | d2c2_B3B | A4z2
d2 | A3GA2d2 | A3GA2A2 | d2c2_B3B | A4z2
A2 | _B2B2c2c2 | d4d2d2 | c3c_B3c | A4z2
A2 | _B2c2d2B2 | c4c2c2 | d3c_B2A2 | G6

